pk/pagoda.svg

<svg viewBox="0 0 48 48" fill="none" xmlns="http://www.w3.org/2000/svg" height="1em" width="1em">
  <path d="M18 16H30C30 16 32.4241 18.6725 34.5 19.4286C35.8013 19.9025 38 20 38 20C38 20 36.758 20.7747 35.9 21.1429C34.8147 21.6085 33 22 33 22H24H15C15 22 13.1853 21.6085 12.1 21.1429C11.242 20.7747 10 20 10 20C10 20 12.1987 19.9025 13.5 19.4286C15.5759 18.6725 18 16 18 16Z" fill="#2F88FF" stroke="black" stroke-width="4" stroke-linejoin="round"/>
  <path d="M17 28H31C31 28 33.6275 30.6725 36 31.4286C37.4872 31.9025 40 32 40 32C40 32 38.5806 32.7747 37.6 33.1429C36.3597 33.6085 34 34 34 34H24H14C14 34 11.6403 33.6085 10.4 33.1429C9.41937 32.7747 8 32 8 32C8 32 10.5128 31.9025 12 31.4286C14.3725 30.6725 17 28 17 28Z" fill="#2F88FF" stroke="black" stroke-width="4" stroke-linejoin="round"/>
  <path d="M18 7.42857C20.4505 6.29809 24 4 24 4C24 4 27.5495 6.29809 30 7.42857C30.7716 7.78453 32 8.28571 32 8.28571C32 8.28571 31.2736 8.84176 30.8 9.14286C30.1825 9.53544 29 10 29 10H24H19C19 10 17.8175 9.53544 17.2 9.14286C16.7264 8.84176 16 8.28571 16 8.28571C16 8.28571 17.2284 7.78453 18 7.42857Z" fill="#2F88FF" stroke="black" stroke-width="4" stroke-linejoin="round"/>
  <path d="M21 10V16" stroke="black" stroke-width="4" stroke-linecap="round" stroke-linejoin="round"/>
  <path d="M27 10V16" stroke="black" stroke-width="4" stroke-linecap="round" stroke-linejoin="round"/>
  <path d="M19 22V28" stroke="black" stroke-width="4" stroke-linecap="round" stroke-linejoin="round"/>
  <path d="M29 22V28" stroke="black" stroke-width="4" stroke-linecap="round" stroke-linejoin="round"/>
  <path d="M16 34V44H32V34" stroke="black" stroke-width="4" stroke-linecap="round" stroke-linejoin="round"/>
</svg>

<svg viewBox="0 0 48 48" fill="none" xmlns="http://www.w3.org/2000/svg" height="1em" width="1em">
  <path d="M18 16h12s2.424 2.672 4.5 3.429c1.301.474 3.5.571 3.5.571s-1.242.775-2.1 1.143C34.815 21.608 33 22 33 22H15s-1.815-.392-2.9-.857C11.242 20.775 10 20 10 20s2.199-.098 3.5-.571C15.576 18.673 18 16 18 16Zm-1 12h14s2.627 2.672 5 3.429c1.487.474 4 .571 4 .571s-1.42.775-2.4 1.143C36.36 33.608 34 34 34 34H14s-2.36-.392-3.6-.857C9.42 32.775 8 32 8 32s2.513-.098 4-.571C14.373 30.673 17 28 17 28Zm1-20.571C20.45 6.299 24 4 24 4s3.55 2.298 6 3.429c.772.356 2 .857 2 .857s-.726.556-1.2.857C30.183 9.535 29 10 29 10H19s-1.183-.465-1.8-.857c-.474-.301-1.2-.857-1.2-.857s1.228-.501 2-.857Z" fill="#2F88FF" stroke="#000" stroke-width="4" stroke-linejoin="round"/>
  <path d="M21 10v6m6-6v6m-8 6v6m10-6v6m-13 6v10h16V34" stroke="#000" stroke-width="4" stroke-linecap="round" stroke-linejoin="round"/>
</svg>
